X:1
T:D minor                                Jeremiah Ingalls, 1805
T:Anonymous Author, apparently first appearing in Ingalls 1805 87. 87. Irregular
T:The Enquirer
T:Treble-Tenor-Bass Transcribed from Ingalls' Christian Harmony , 180 5; Counter by B. C. Johnston, 2017.
%%score [ 1 2 3 4 ]
L:1/8
Q:1/4=110
M:4/4
K:F
V:1 treble nm="Tr." snm="Tr."
V:2 treble nm="C." snm="C."
V:3 treble-8 nm="T." snm="T."
V:4 bass nm="B." snm="B."
V:1
"^1. Oh! that some one  would  tell me,   Is  this  the  road  that  Christians  go?               Hark, and hear what has be – fell   me,  Now    my          heart  is     filled  with  woe.\n2. Oft  with darkness  I’m  sur–roun–ded,   Peace  nor  comfort  can  I  find;                 If     I    hear the  gos – pel   sound,  it    Brings  no        com – fort   to      my    mind.\n" A2 A2 A2 A2 | %1
 d2 d2 ^c2 c2 | e2 e2 f2 d2 | c2 B2 A4 | z4 d2 A2 | e2 c2 d2 A2 | A2 A2 c2 c2 | d2 ^c2 d2 A2 | %8
 A8 |] %9
V:2
"^3. O!  the  sin,  that’s   in   me   lur – king,      Of – ten  brings  me  very  low;                 Sa–tan  still  with  me  wor–king,    Is      this      the        road   that   Christians  go?\n4.  If  Christ  Je – sus,  by  his   spi  – rit,       Took  possession  of  my  heart,               Could  I  not  then  plead  his  me – rit,    Should  I          from    his   way   de  –  part?" A2 A2 F2 A2 | %1
 F2 D2 E2 E2 | E2 A2 d2 d2 | c2 G2 A4 | z4 d2 d2 | c2 c2 d2 A2 | ^c2 A2 AG AG | F2 E2 F2 E2 | D8 |] %9
V:3
"^5. But  can  this  be       all    de – lu – sion,   Which  by  turns  I  think  I  feel?               Who  can  tell  the  whole  con–clu–sion?  To      the        Lord   I      must   ap  –  peal.\n6. But   if    bread  of    life’s  been  broken,  And  my heart renewed by grace,              Je  –  sus,  wilt  thou  as     a       to  –  ken,   Let    me         see     thy   smi – ling   face?" d2 d2 c2 c2 | %1
 f2 f2 e2 e2 | ^c2 c2 d2 d2 | f2 d2 e4 | z4 f2 d2 | g2 e2 f2 d2 | ^c2 c2 AB AG | F2 G2 A2 ^c2 | %8
 d8 |] %9
V:4
"^_______________________________________________________________________________________\nEdited by B. C. Johnston, 2017\n     1. Words omitted from stanzas 1 and 3, to make the meter fit the music.\n     2. Counter part written." D,2 D,2 F,2 F,2 | %1
 D,2 D,2 A,2 A,2 | A,2 A,2 D,2 D,2 | F,2 G,2 A,4 | z4 D,2 D,2 | C,2 C,2 D,2 D,2 | %6
 A,2 A,2 F,G, F,E, | D,2 E,2 F,2 A,2 | D,8 |] %9

